icons/mobile/20/svg/email-mask-20.svg

<svg width="20" height="20" viewBox="0 0 20 20" fill="none" xmlns="http://www.w3.org/2000/svg">
<path fill-rule="evenodd" clip-rule="evenodd" d="M14.3984 11.6945C14.9475 10.5939 15.3721 10.3344 15.8535 10.4337C16.2767 10.5208 16.5337 11.2801 16.6738 11.6115C16.946 12.2551 17.1754 12.9007 17.3076 13.5832C17.3989 14.0542 17.6429 14.4014 18.1211 14.4015L18.125 14.4025C18.2459 14.4044 18.3294 14.5304 18.2871 14.6437C18.1848 14.9173 17.8692 15.0915 17.6064 15.1925C17.726 15.2236 18.0784 15.1538 18.0928 15.3293C18.1038 15.4738 17.7381 15.6189 17.6387 15.6671C16.7118 16.1134 15.8585 16.9141 14.7617 16.7726C14.2849 16.7104 13.9371 16.3745 13.5469 16.1662C13.3628 16.0682 13.1392 16.0682 12.9551 16.1662C12.5649 16.3745 12.2169 16.7104 11.7402 16.7726C10.6437 16.9139 9.79087 16.1134 8.86426 15.6671C8.76512 15.6205 8.39659 15.4738 8.40918 15.3293C8.42512 15.1522 8.77752 15.2236 8.89551 15.1925C8.63273 15.0915 8.31812 14.9173 8.21582 14.6437C8.17333 14.5302 8.25519 14.4025 8.37793 14.4025C8.85765 14.4008 9.10014 14.0561 9.19141 13.5851C9.32359 12.901 9.55296 12.2571 9.8252 11.6134C9.96525 11.2838 10.2222 10.5218 10.6455 10.4347C11.1268 10.3354 11.5532 10.5937 12.1006 11.6955C12.5468 12.5911 12.8502 13.2215 12.8574 13.2365V13.2433L13.168 13.2394L13.1758 13.2384H13.3311L13.6416 13.2414V13.2355C13.6416 13.2355 13.9468 12.6025 14.3984 11.6945ZM12.6094 15.2287C12.3859 14.5119 11.4678 14.2415 10.7754 14.3566C10.6586 14.3755 10.3385 14.4884 10.3525 14.6359V14.6378C10.6643 15.4088 11.9737 15.8085 12.6094 15.2287ZM15.7217 14.3566C15.0298 14.2416 14.113 14.5111 13.8887 15.2267C14.5244 15.808 15.8314 15.407 16.1445 14.6359C16.1586 14.4883 15.8382 14.3753 15.7217 14.3566Z" fill="black"/>
<path fill-rule="evenodd" clip-rule="evenodd" d="M4.13867 4.26089C6.66766 3.91589 9.28095 3.91197 11.8359 4.25796C13.0699 4.42596 14.001 5.49338 14.001 6.74038V9.63394C13.7068 9.92348 13.4625 10.2791 13.249 10.6603C13.0367 10.2804 12.7939 9.92573 12.501 9.63687V6.74136C12.501 6.68997 12.4958 6.63953 12.4883 6.58999L9.76172 8.86343C9.25178 9.28823 8.62583 9.50113 8.00098 9.50113C7.37612 9.50113 6.75117 9.28823 6.24023 8.86343L3.51172 6.58999C3.50469 6.63822 3.50098 6.68747 3.50098 6.73745V10.2589C3.50098 10.7599 3.87319 11.188 4.36719 11.255C5.41232 11.3959 7.06045 11.4981 8.24316 11.5216C8.0632 11.9881 7.90053 12.4815 7.78027 13.006C6.61956 12.969 5.13744 12.8721 4.16602 12.7404C2.93202 12.5724 2.00098 11.505 2.00098 10.258V6.73648C2.00098 5.49257 2.91981 4.42802 4.13867 4.26089ZM8.00098 5.50015C6.92683 5.50015 5.84478 5.56476 4.78027 5.69253L7.20117 7.71011C7.66411 8.09592 8.33684 8.09592 8.80078 7.71011L11.2207 5.69253C10.1519 5.56514 9.07056 5.50015 8.00098 5.50015Z" fill="black"/>
</svg>

<!-- This Source Code Form is subject to the terms of the Mozilla Public
   - License, v. 2.0. If a copy of the MPL was not distributed with this
   - file, You can obtain one at http://mozilla.org/MPL/2.0/. -->
<svg xmlns="http://www.w3.org/2000/svg" width="20" height="20" fill="none" viewBox="0 0 20 20">
    <path fill="#000" fill-rule="evenodd" d="M14.398 11.695c.55-1.101.974-1.36 1.456-1.261.423.087.68.846.82 1.178.272.643.501 1.289.634 1.971.09.471.335.818.813.819h.004a.18.18 0 0 1 .162.242c-.102.273-.418.447-.68.549.119.03.471-.04.486.136.01.145-.355.29-.454.338-.927.446-1.78 1.247-2.877 1.106-.477-.063-.825-.398-1.215-.607a.63.63 0 0 0-.592 0c-.39.209-.738.544-1.215.607-1.096.14-1.95-.66-2.876-1.106-.099-.046-.467-.193-.455-.338.016-.177.369-.105.487-.136-.263-.101-.578-.276-.68-.55a.177.177 0 0 1 .162-.24c.48-.002.722-.347.813-.818.133-.684.362-1.328.634-1.972.14-.33.397-1.091.82-1.178.482-.1.908.159 1.456 1.26.446.896.75 1.527.756 1.541v.007l.311-.004h.163l.31.002v-.005s.306-.634.757-1.542m-1.789 3.534c-.223-.717-1.141-.987-1.834-.872-.116.019-.437.131-.423.279v.002c.312.77 1.622 1.17 2.257.59m3.113-.872c-.692-.115-1.609.154-1.833.87.635.581 1.942.18 2.256-.591.014-.148-.307-.26-.423-.28" clip-rule="evenodd" />
    <path fill="#000" fill-rule="evenodd" d="M4.139 4.26a28.7 28.7 0 0 1 7.697-.002A2.514 2.514 0 0 1 14 6.74v2.894a4.6 4.6 0 0 0-.752 1.026 4.5 4.5 0 0 0-.748-1.023V6.74a1 1 0 0 0-.013-.151L9.762 8.863a2.75 2.75 0 0 1-3.522 0L3.512 6.59q-.01.072-.011.147v3.522c0 .5.372.929.866.996 1.045.14 2.693.243 3.876.267-.18.466-.342.96-.463 1.484-1.16-.037-2.643-.134-3.614-.266a2.514 2.514 0 0 1-2.165-2.482V6.736c0-1.243.919-2.308 2.138-2.475M8 5.5c-1.074 0-2.156.065-3.22.193L7.2 7.71a1.25 1.25 0 0 0 1.6 0l2.42-2.017A27 27 0 0 0 8 5.5" clip-rule="evenodd" />
</svg>
